svg/fluentui-system-icons/ic_fluent_glasses_off_28_regular.svg

<svg width="28" height="28" viewBox="0 0 28 28" fill="none" xmlns="http://www.w3.org/2000/svg">
<path d="M2.21967 2.21967C2.51257 1.92677 2.98744 1.92678 3.28033 2.21967L25.7801 24.7198C26.073 25.0127 26.073 25.4876 25.7801 25.7805C25.4872 26.0734 25.0123 26.0734 24.7194 25.7805L19.939 21H18.75C16.6789 21 15 19.3211 15 17.25V16.0609L13.1892 14.25H13V17.25C13 19.3211 11.3211 21 9.25 21H5.75C3.67893 21 2 19.3211 2 17.25V13.25C2 12.5703 2.24659 11.9482 2.65519 11.4683L2.65313 11.4662L2.67923 11.4404C2.76841 11.3384 2.865 11.2431 2.96816 11.1553L6.55496 7.61569L2.21967 3.28033C1.92677 2.98743 1.92678 2.51256 2.21967 2.21967ZM7.61563 8.67638L5.7677 10.5H9.43921L7.61563 8.67638ZM3.77995 12.4616C3.60492 12.6767 3.5 12.9511 3.5 13.25V17.25C3.5 18.4926 4.50736 19.5 5.75 19.5H9.25C10.4926 19.5 11.5 18.4926 11.5 17.25V13.25C11.5 12.5596 10.9404 12 10.25 12H4.75C4.45707 12 4.18767 12.1008 3.97457 12.2695L3.77995 12.4616ZM10.6818 7.49999L9.18515 6.00333C9.23017 6.00111 9.27534 5.99999 9.32063 5.99999H10.75C11.1642 5.99999 11.5 6.33578 11.5 6.74999C11.5 7.16421 11.1642 7.49999 10.75 7.49999H10.6818ZM15.2609 12.0792L16.5 13.3183V13.25C16.5 12.5596 17.0596 12 17.75 12H23.25C23.5429 12 23.8123 12.1008 24.0254 12.2695L24.2201 12.4616C24.3951 12.6767 24.5 12.9511 24.5 13.25V17.25C24.5 18.3573 23.7002 19.2777 22.6467 19.4651L23.8324 20.6508C25.1126 20.0541 26 18.7557 26 17.25V13.25C26 12.5703 25.7534 11.9482 25.3448 11.4683L25.3469 11.4662L25.3208 11.4404C25.2316 11.3384 25.135 11.2431 25.0318 11.1553L20.611 6.79261C20.0963 6.28475 19.4024 5.99999 18.6794 5.99999H17.25C16.8358 5.99999 16.5 6.33578 16.5 6.74999C16.5 7.16421 16.8358 7.49999 17.25 7.49999H18.6794C19.008 7.49999 19.3234 7.62943 19.5574 7.86027L22.2323 10.5H17.75C16.6499 10.5 15.7007 11.1459 15.2609 12.0792Z" fill="#212121"/>
</svg>

<svg xmlns="http://www.w3.org/2000/svg" width="28" height="28"><path d="M2.22 2.22a.75.75 0 0 1 1.06 0l22.5 22.5a.75.75 0 0 1-1.06 1.06L19.938 21H18.75A3.75 3.75 0 0 1 15 17.25v-1.19l-1.81-1.81H13v3A3.75 3.75 0 0 1 9.25 21h-3.5A3.75 3.75 0 0 1 2 17.25v-4c0-.68.247-1.302.655-1.782l-.002-.002.026-.026a2.76 2.76 0 0 1 .29-.285l3.586-3.54L2.22 3.28a.75.75 0 0 1 0-1.06Zm5.396 6.456L5.768 10.5h3.671L7.616 8.676ZM3.78 12.462c-.175.215-.28.49-.28.788v4a2.25 2.25 0 0 0 2.25 2.25h3.5a2.25 2.25 0 0 0 2.25-2.25v-4c0-.69-.56-1.25-1.25-1.25h-5.5c-.293 0-.562.1-.775.27l-.195.192ZM10.682 7.5 9.185 6.003A2.75 2.75 0 0 1 9.321 6h1.429a.75.75 0 0 1 0 1.5h-.068Zm4.579 4.58 1.239 1.238v-.068c0-.69.56-1.25 1.25-1.25h5.5c.293 0 .562.1.775.27l.195.192c.175.215.28.49.28.788v4a2.25 2.25 0 0 1-1.853 2.215l1.185 1.186A3.75 3.75 0 0 0 26 17.25v-4c0-.68-.247-1.302-.655-1.782l.002-.002-.026-.026a2.759 2.759 0 0 0-.29-.285l-4.42-4.362A2.75 2.75 0 0 0 18.679 6H17.25a.75.75 0 0 0 0 1.5h1.43c.328 0 .643.13.877.36l2.675 2.64H17.75c-1.1 0-2.05.646-2.49 1.58Z"/></svg>
